public/mark-sessions.svg

<svg height="500" viewBox="0 0 500 500" width="500" xmlns="http://www.w3.org/2000/svg"><path fill="currentColor" d="m374.974759 31.9890969c31.000066 34.5508692 30.751077 86.9928801-.781249 121.1810911-13.92716 15.099936-29.092952 29.056867-43.698518 43.529819-2.090247 2.071302-4.194928 4.127268-5.763741 5.669918 5.005046 5.489492 9.542785 10.847272 14.478365 15.80721 12.333088 12.396238 25.016205 24.446957 37.249155 36.939723 17.539309 17.914597 26.384743 39.728222 26.18898 64.675864-.196665 25.101907-9.54098 46.869523-27.488054 64.527914-18.368479 18.07229-30.586621 29.819023-42.54089 41.330593l-1.493335 1.438162c-12.440104 11.981819-24.860022 23.983823-43.913114 42.889867-14.439573 14.327708-31.000066 23.973336-50.865981 28.07805-51.077081 10.553176-101.794209-22.971966-111.044702-74.276384-5.673527-31.470981 3.648234-58.916634 26.13846-81.618862 7.453557-7.523518 9.010769-8.983891 10.238365-10.056499l.155353-.13526c.025737-.022338.051432-.044609.077138-.06687l.154807-.133859c1.246433-1.076767 2.766748-2.378821 10.490612-9.951559.872364-.855224 1.949514-1.502055 2.376223-1.825019-6.750676-7.152127-12.991646-13.903705-19.383273-20.508236-14.027297-14.492799-29.866984-27.258009-41.974538-43.577632-10.487779-14.136989-15.9884586-31.522837-16.574822-49.093747v-6.303652c.6667552-19.935799 7.647904-39.638396 20.83741-54.633303 9.416485-10.705636 19.851481-20.525376 29.973436-30.597713 15.973203-15.8938151 32.073607-31.6604289 48.122589-47.4793665 14.645259-14.4350624 29.101973-29.0685946 43.994418-43.24294 14.0706-13.3921944 31.184101-21.09372109 50.321994-23.58000521 33.480035-4.34919293 62.107485 5.80343459 84.724912 31.01269561zm-81.100134 217.3270331c-16.919542 3.596812-30.416384 12.606435-42.382303 24.629188-22.218683 22.324233-44.5357 44.551938-66.925789 66.704766-7.144079 7.068552-6.980529 6.806545-7.154695 6.790319l-.022029-.000351c-.187056.012286-.868498.444938-7.336824 6.542685-18.461291 17.404891-27.170502 38.458016-23.644057 63.709677 4.895887 35.054261 35.538707 61.105214 71.955192 61.179189 17.191987-.301313 33.475524-5.561662 47.164521-17.720638 4.684787-4.161549 9.187343-8.536002 13.661932-12.926693 17.293279-16.971974 28.36077-27.695297 39.164962-38.18314l2.024156-1.965179c11.019458-10.70027 22.152877-21.546792 39.743219-38.936445 15.836981-15.656554 22.734705-34.977579 20.541615-57.045606-4.19583-42.215409-45.28357-71.602457-86.7899-62.777772zm-82.83945-166.1606411c-1.086171 1.0004677-1.987404 1.7835209-2.837215 2.6207022-7.015002 6.9103543-14.034514 13.8180021-21.026963 20.7518119-17.219051 17.07471-35.028099 33.60453-51.455977 51.409968-15.145945 16.417054-19.863209 36.574358-16.000267 58.689296 2.905777 16.632664 11.845935 29.689264 23.650372 41.177051 13.67366 13.307394 27.276954 26.686958 40.928061 40.01871 2.083932 2.035216 4.256273 3.979317 6.501687 6.071368 1.167363-1.102409 2.157005-2.00725 3.113268-2.947275 16.334057-16.045373 32.487687-32.280195 49.047277-48.089209 15.224431-14.532493 33.534163-22.961141 54.492564-25.263389 6.294196-.691938 12.665074-.68021 20.186173-1.049183-2.054161-1.805172-3.403755-2.884126-4.631561-4.086672-23.739683-23.262454-47.543418-46.459051-71.162215-69.843293-14.656987-14.510842-25.052289-31.577432-29.025292-52.055897-1.08166-5.5733905-1.18721-11.3353268-1.779912-17.4039891zm35.422331-33.8102163c-13.196431 17.1964977-17.369707 36.1079542-9.907246 56.9156984 4.304988 12.001102 11.303751 22.359417 20.308863 31.312204 13.003374 12.928497 26.210631 25.65221 39.204984 38.588826 4.000067 3.982024 7.592368 8.374519 11.928029 13.199137 18.17351-18.240268 35.878812-34.688895 51.998161-52.569211 15.290286-16.961041 19.72428-37.9618421 14.448594-60.0415968-7.154833-29.940057-26.822278-48.561026-56.773161-54.2516937-28.520097-5.4191251-53.059071 3.1962644-71.208224 26.8466361z" fill-rule="evenodd"/></svg>

<?xml version="1.0" encoding="UTF-8"?>
<svg width="500px" height="500px" viewBox="0 0 500 500" version="1.1" xmlns="http://www.w3.org/2000/svg" xmlns:xlink="http://www.w3.org/1999/xlink">
    <title>session-mark</title>
    <defs>
        <path d="M374.974759,31.9890969 C405.974825,66.5399661 405.725836,118.981977 374.19351,153.170188 C360.26635,168.270124 345.100558,182.227055 330.494992,196.700007 C328.404745,198.771309 326.300064,200.827275 324.731251,202.369925 C329.736297,207.859417 334.274036,213.217197 339.209616,218.177135 C351.542704,230.573373 364.225821,242.624092 376.458771,255.116858 C393.99808,273.031455 402.843514,294.84508 402.647751,319.792722 C402.451086,344.894629 393.106771,366.662245 375.159697,384.320636 C356.791218,402.392926 344.573076,414.139659 332.618807,425.651229 L331.125472,427.089391 C318.685368,439.07121 306.26545,451.073214 287.212358,469.979258 C272.772785,484.306966 256.212292,493.952594 236.346377,498.057308 C185.269296,508.610484 134.552168,475.085342 125.301675,423.780924 C119.628148,392.309943 128.949909,364.86429 151.440135,342.162062 C158.893692,334.638544 160.450904,333.178171 161.6785,332.105563 L161.833853,331.970303 C161.85959,331.947965 161.885285,331.925694 161.910991,331.903433 L162.065798,331.769574 C163.312231,330.692807 164.832546,329.390753 172.55641,321.818015 C173.428774,320.962791 174.505924,320.31596 174.932633,319.992996 C168.181957,312.840869 161.940987,306.089291 155.54936,299.48476 C141.522063,284.991961 125.682376,272.226751 113.574822,255.907128 C103.087043,241.770139 97.5863634,224.384291 97,206.813381 L97,200.509729 C97.6667552,180.57393 104.647904,160.871333 117.83741,145.876426 C127.253895,135.17079 137.688891,125.35105 147.810846,115.278713 C163.784049,99.3848979 179.884453,83.6182841 195.933435,67.7993465 C210.578694,53.3642841 225.035408,38.7307519 239.927853,24.5564065 C253.998453,11.1642121 271.111954,3.46268541 290.249847,0.976401291 C323.729882,-3.37279164 352.357332,6.77983588 374.974759,31.9890969 Z M293.874625,249.31613 C276.955083,252.912942 263.458241,261.922565 251.492322,273.945318 C229.273639,296.269551 206.956622,318.497256 184.566533,340.650084 C177.422454,347.718636 177.586004,347.456629 177.411838,347.440403 L177.389809,347.440052 C177.202753,347.452338 176.521311,347.88499 170.052985,353.982737 C151.591694,371.387628 142.882483,392.440753 146.408928,417.692414 C151.304815,452.746675 181.947635,478.797628 218.36412,478.871603 C235.556107,478.57029 251.839644,473.309941 265.528641,461.150965 C270.213428,456.989416 274.715984,452.614963 279.190573,448.224272 C296.483852,431.252298 307.551343,420.528975 318.355535,410.041132 L320.379691,408.075953 C331.399149,397.375683 342.532568,386.529161 360.12291,369.139508 C375.959891,353.482954 382.857615,334.161929 380.664525,312.093902 C376.468695,269.878493 335.380955,240.491445 293.874625,249.31613 Z M211.035175,83.1554889 C209.949004,84.1559566 209.047771,84.9390098 208.19796,85.7761911 C201.182958,92.6865454 194.163446,99.5941932 187.170997,106.528003 C169.951946,123.602713 152.142898,140.132533 135.71502,157.937971 C120.569075,174.355025 115.851811,194.512329 119.714753,216.627267 C122.62053,233.259931 131.560688,246.316531 143.365125,257.804318 C157.038785,271.111712 170.642079,284.491276 184.293186,297.823028 C186.377118,299.858244 188.549459,301.802345 190.794873,303.894396 C191.962236,302.791987 192.951878,301.887146 193.908141,300.947121 C210.242198,284.901748 226.395828,268.666926 242.955418,252.857912 C258.179849,238.325419 276.489581,229.896771 297.447982,227.594523 C303.742178,226.902585 310.113056,226.914313 317.634155,226.54534 C315.579994,224.740168 314.2304,223.661214 313.002594,222.458668 C289.262911,199.196214 265.459176,175.999617 241.840379,152.615375 C227.183392,138.104533 216.78809,121.037943 212.815087,100.559478 C211.733427,94.9860875 211.627877,89.2241512 211.035175,83.1554889 Z M246.457506,49.3452726 C233.261075,66.5417703 229.087799,85.4532268 236.55026,106.260971 C240.855248,118.262073 247.854011,128.620388 256.859123,137.573175 C269.862497,150.501672 283.069754,163.225385 296.064107,176.162001 C300.064174,180.144025 303.656475,184.53652 307.992136,189.361138 C326.165646,171.12087 343.870948,154.672243 359.990297,136.791927 C375.280583,119.830886 379.714577,98.8300849 374.438891,76.7503302 C367.284058,46.8102732 347.616613,28.1893042 317.66573,22.4986365 C289.145633,17.0795114 264.606659,25.6949009 246.457506,49.3452726 Z" id="path-1"></path>
    </defs>
    <g id="session-mark" stroke="none" stroke-width="1" fill="none" fill-rule="evenodd">
        <mask id="mask-2" fill="white">
            <use xlink:href="#path-1"></use>
        </mask>
        <use id="Clip-2" fill="#5046E4" xlink:href="#path-1"></use>
    </g>
</svg>
